icons/hash-24.svg

<svg width="24" height="24" viewBox="0 0 24 24" fill="none" xmlns="http://www.w3.org/2000/svg">
<path fill-rule="evenodd" clip-rule="evenodd" d="M9.6185 1.75941C10.0275 1.82485 10.306 2.20947 10.2406 2.61848L9.45954 7.5H15.9405L16.7594 2.3815C16.8249 1.97248 17.2095 1.69397 17.6185 1.75941C18.0275 1.82485 18.306 2.20947 18.2406 2.61848L17.4595 7.5H21.25C21.6642 7.5 22 7.83579 22 8.25C22 8.66421 21.6642 9 21.25 9H17.2195L16.2595 15H20.2499C20.6642 15 20.9999 15.3358 20.9999 15.75C20.9999 16.1642 20.6642 16.5 20.2499 16.5H16.0195L15.2406 21.3685C15.1751 21.7775 14.7905 22.056 14.3815 21.9906C13.9725 21.9251 13.694 21.5405 13.7594 21.1315L14.5005 16.5H8.01954L7.24058 21.3685C7.17514 21.7775 6.79052 22.056 6.38151 21.9906C5.9725 21.9251 5.69398 21.5405 5.75942 21.1315L6.50046 16.5H2.74518C2.33096 16.5 1.99518 16.1642 1.99518 15.75C1.99518 15.3358 2.33096 15 2.74518 15H6.74046L7.70046 9H3.75C3.33579 9 3 8.66421 3 8.25C3 7.83579 3.33579 7.5 3.75 7.5H7.94046L8.75942 2.3815C8.82487 1.97248 9.20949 1.69397 9.6185 1.75941ZM14.7405 15L15.7005 9H9.21954L8.25954 15H14.7405Z" fill="#24292E"/>
</svg>

<svg xmlns="http://www.w3.org/2000/svg" width="24" height="24" viewBox="0 0 24 24"><path fill-rule="evenodd" d="M9.618 1.76a.75.75 0 01.623.859L9.46 7.5h6.48l.82-5.118a.75.75 0 011.48.237L17.46 7.5h3.79a.75.75 0 010 1.5h-4.03l-.96 6h3.99a.75.75 0 110 1.5h-4.23l-.78 4.869a.75.75 0 01-1.48-.237l.74-4.632H8.02l-.78 4.869a.75.75 0 01-1.48-.237L6.5 16.5H2.745a.75.75 0 010-1.5H6.74l.96-6H3.75a.75.75 0 010-1.5h4.19l.82-5.118a.75.75 0 01.858-.622zM14.741 15l.96-6H9.22l-.96 6h6.48z"/></svg>
